src/icons/terminal-bash.svg

<svg width="16" height="16" viewBox="0 0 16 16" xmlns="http://www.w3.org/2000/svg" fill="currentColor"><path d="M13.6547 3.56163L8.91789 0.749977C8.64251 0.586821 8.32832 0.500732 8.00824 0.500732C7.68816 0.500732 7.37396 0.586821 7.09859 0.749977L2.36178 3.56163C2.08017 3.7296 1.84714 3.96798 1.68561 4.25334C1.52408 4.53869 1.43963 4.86118 1.44055 5.18908V10.8124C1.43877 11.1395 1.52198 11.4614 1.68201 11.7467C1.84205 12.032 2.07344 12.2708 2.35351 12.4398L7.09032 15.2515C7.36569 15.4146 7.67989 15.5007 7.99997 15.5007C8.32005 15.5007 8.63424 15.4146 8.90962 15.2515L13.6464 12.4398C13.9265 12.2708 14.1579 12.032 14.3179 11.7467C14.478 11.4614 14.5612 11.1395 14.5594 10.8124V5.18908C14.562 4.86277 14.4801 4.54134 14.3215 4.25613C14.163 3.97091 13.9332 3.73164 13.6547 3.56163ZM9.98632 12.3423V12.7458C9.986 12.7706 9.97948 12.795 9.96735 12.8167C9.95522 12.8383 9.93786 12.8566 9.91685 12.8699L9.67704 13.0071C9.639 13.027 9.60757 13.0071 9.60757 12.9542V12.5573C9.43807 12.6405 9.24411 12.6593 9.06178 12.6102C9.04762 12.6007 9.03722 12.5866 9.03239 12.5703C9.02755 12.554 9.02859 12.5365 9.03532 12.5209L9.12132 12.1554C9.12866 12.1246 9.14542 12.0968 9.16928 12.076C9.17614 12.0693 9.18394 12.0638 9.19244 12.0594C9.19844 12.0568 9.20492 12.0555 9.21146 12.0555C9.218 12.0555 9.22447 12.0568 9.23048 12.0594C9.39772 12.1042 9.57586 12.0817 9.72665 11.9966C9.83381 11.9442 9.92481 11.8638 9.99003 11.764C10.0552 11.6641 10.0923 11.5485 10.0971 11.4293C10.0971 11.2242 9.98466 11.1382 9.71342 11.1366C9.36941 11.1366 9.05186 11.0704 9.04359 10.5626C9.04754 10.3458 9.09941 10.1325 9.19548 9.93807C9.29156 9.74363 9.42946 9.57286 9.5993 9.43798V9.02947C9.59918 9.00433 9.6055 8.97957 9.61767 8.95757C9.62982 8.93557 9.64742 8.91704 9.66877 8.90377L9.90032 8.75657C9.93835 8.73672 9.96978 8.75657 9.96978 8.81115V9.21967C10.1116 9.1551 10.2699 9.13603 10.423 9.16509C10.4389 9.17416 10.4508 9.18892 10.4563 9.20639C10.4618 9.22387 10.4605 9.24279 10.4527 9.25936L10.3717 9.62157C10.3648 9.64915 10.3505 9.67432 10.3303 9.69434C10.3236 9.70156 10.3158 9.7077 10.3072 9.71253C10.2959 9.71631 10.2837 9.71631 10.2724 9.71253C10.1232 9.6798 9.967 9.70523 9.83581 9.78365C9.74024 9.825 9.6584 9.89266 9.59984 9.97876C9.54127 10.0649 9.50839 10.1658 9.50503 10.2699C9.50503 10.4551 9.60261 10.5114 9.93009 10.518C10.3684 10.518 10.5569 10.7165 10.5619 11.1564C10.5578 11.384 10.5042 11.608 10.4048 11.8127C10.3054 12.0175 10.1626 12.1982 9.98632 12.3423ZM12.4672 11.6625C12.47 11.6795 12.4682 11.697 12.4617 11.7131C12.4553 11.7291 12.4446 11.7431 12.4308 11.7535L11.2334 12.4812C11.2278 12.4859 11.2208 12.4888 11.2135 12.4894C11.2062 12.4899 11.1989 12.4881 11.1926 12.4843C11.1864 12.4804 11.1815 12.4747 11.1787 12.4679C11.1759 12.4611 11.1754 12.4536 11.1771 12.4465V12.1372C11.1779 12.1206 11.1835 12.1046 11.1932 12.0911C11.2029 12.0775 11.2162 12.0671 11.2317 12.0611L12.411 11.3549C12.4165 11.3501 12.4235 11.3472 12.4308 11.3467C12.4381 11.3461 12.4455 11.3479 12.4517 11.3518C12.458 11.3556 12.4628 11.3614 12.4656 11.3682C12.4684 11.375 12.4689 11.3825 12.4672 11.3896V11.6625ZM13.2941 4.74749L8.81204 7.51614C8.25302 7.84692 7.84119 8.20913 7.84119 8.88227V14.403C7.84119 14.8066 8.00658 15.0646 8.25467 15.144C8.17284 15.1594 8.08984 15.1677 8.00658 15.1688C7.74336 15.1682 7.48514 15.0968 7.25902 14.9621L2.52221 12.1504C2.29224 12.0111 2.10222 11.8147 1.97064 11.5802C1.83907 11.3458 1.7704 11.0812 1.77133 10.8124V5.18908C1.77012 4.91994 1.83864 4.65508 1.97024 4.4203C2.10183 4.18552 2.292 3.98884 2.52221 3.84941L7.25902 1.03776C7.48434 0.904297 7.7414 0.833879 8.00328 0.833879C8.26516 0.833879 8.52222 0.904297 8.74754 1.03776L13.4843 3.84941C13.6772 3.96611 13.8422 4.12352 13.9679 4.31063C14.0936 4.49775 14.177 4.71006 14.2121 4.93272C14.0583 4.59863 13.7043 4.50601 13.2925 4.74749H13.2941Z"/></svg>

<svg width="16" height="16" viewBox="0 0 16 16" xmlns="http://www.w3.org/2000/svg" fill="currentColor"><path d="M13.655 3.56L8.918.75a1.785 1.785 0 0 0-1.82 0L2.363 3.56a1.889 1.889 0 0 0-.921 1.628v5.624a1.889 1.889 0 0 0 .913 1.627l4.736 2.812a1.785 1.785 0 0 0 1.82 0l4.736-2.812a1.888 1.888 0 0 0 .913-1.627V5.188a1.889 1.889 0 0 0-.904-1.627zm-3.669 8.781v.404a.149.149 0 0 1-.07.124l-.239.137c-.038.02-.07 0-.07-.053v-.396a.78.78 0 0 1-.545.053.073.073 0 0 1-.027-.09l.086-.365a.153.153 0 0 1 .071-.096.048.048 0 0 1 .038 0 .662.662 0 0 0 .497-.063.662.662 0 0 0 .37-.567c0-.206-.112-.292-.384-.293-.344 0-.661-.066-.67-.574A1.47 1.47 0 0 1 9.6 9.437V9.03a.147.147 0 0 1 .07-.126l.231-.147c.038-.02.07 0 .07.054v.409a.754.754 0 0 1 .453-.055.073.073 0 0 1 .03.095l-.081.362a.156.156 0 0 1-.065.09.055.055 0 0 1-.035 0 .6.6 0 0 0-.436.072.549.549 0 0 0-.331.486c0 .185.098.242.425.248.438 0 .627.199.632.639a1.568 1.568 0 0 1-.576 1.185zm2.481-.68a.094.094 0 0 1-.036.092l-1.198.727a.034.034 0 0 1-.04.003.035.035 0 0 1-.016-.037v-.31a.086.086 0 0 1 .055-.076l1.179-.706a.035.035 0 0 1 .056.035v.273zm.827-6.914L8.812 7.515c-.559.331-.97.693-.97 1.367v5.52c0 .404.165.662.413.741a1.465 1.465 0 0 1-.248.025c-.264 0-.522-.072-.748-.207L2.522 12.15a1.558 1.558 0 0 1-.75-1.338V5.188a1.558 1.558 0 0 1 .75-1.34l4.738-2.81a1.46 1.46 0 0 1 1.489 0l4.736 2.812a1.548 1.548 0 0 1 .728 1.083c-.154-.334-.508-.427-.92-.185h.002z"/></svg>
